X:1
T:Boerenkermis
C:Trad.
O:Vlaanderen
Z:Bart Vanhaverbeke 
L:1/8
M:6/8
K:G
D | "G"G2 A Bcd | GGG G2 c | Bcd dcB | "A7"B3 "D"A2 D | 
"G"G2 A Bcd | GGG Gdc| "A7"BAG "D7"DEF | "G"G3 z2 B |
"G"B2 B B2 A | B2 c d2 G | "D7"FFE FFE | F2 G A2 A | 
"A"AAA "D"AAA | "A"AAA "D"AAA | "G"B2 A "A7"BEA | "D7"D3 z2 D |
"G"GGG GGF | "D7"F2 E E2 E | "D"ccc "G"BBB | "D7"AAd d2 B | 
ddd c2 c | "G"BAB "D"A2 B | ddd ccc | BAB Adc | BAG DEF | "G"G3 z2 |]
